!!!COM: Fux, Johann Joseph
!!!OMD: Gradus ad Parnassum Exercise
!!!YEC: CC0 1.0 Universal (Public Domain). Mark Gotham and FourScoreAndMore.org waive all rights to this document.
**kern	**kern	**kern
*part3	*part2	*part1
*staff3	*staff2	*staff1
*I"3	*I"2	*I"1
*I'Pno	*I'Pno	*I'Pno
!!LO:LB:g=z
*clefF4	*clefGv2	*clefG2
*k[]	*k[]	*k[]
!!LO:TX:omd:t=
*M4/4	*M4/4	*M4/4
=34	=34	=34
!	!	!LO:TX:a:t=Fig. 106; Species&colon; 1; Modal final&colon; e; Cantus firmus&colon; 1
1E	1G	1e
=35	=35	=35
1F	1A	1c
=36	=36	=36
1D	1F	1d
=37	=37	=37
1AA	1E	1c
=38	=38	=38
1FF	1F	1A
=39	=39	=39
1FF	1c	1a
=40	=40	=40
1C	1e	1g
=41	=41	=41
1C	1c	1e
=42	=42	=42
1D	1A	1f
=43	=43	=43
1E	1G#X	1e
==	==	==
*-	*-	*-
!!!software: music21 v.9.7.1
!!!software: music21 v.9.7.1
!!!software: MuseScore 3.4.2
!!!RDF**kern: > = above
!!!RDF**kern: < = below
